packages/ffe-icons/icons/filled/md/nest_wifi_pro.svg

<svg xmlns="http://www.w3.org/2000/svg" height="24" viewBox="0 -960 960 960" width="24"><path d="M479.955-290.001q20.814 0 35.429-14.57 14.615-14.57 14.615-35.384t-14.57-35.429q-14.57-14.615-35.384-14.615t-35.429 14.57q-14.615 14.57-14.615 35.384t14.57 35.429q14.57 14.615 35.384 14.615ZM360-100.001q-70.592 0-113.68-39.039-43.088-39.038-66.78-96.559-23.692-58.479-31.616-123.825-7.923-65.346-7.923-119.576 0-95.846 14.672-166.62 14.672-70.775 53.482-119.225 38.696-48.057 103.819-71.605 65.122-23.549 167.997-23.549 102.875 0 168.02 23.549 65.145 23.548 103.854 71.605 38.81 48.45 53.482 119.225 14.672 70.774 14.672 166.62 0 54.23-7.923 119.576-7.924 65.346-31.616 123.825-23.692 57.521-66.78 96.559-43.088 39.039-113.68 39.039H360Z"/></svg>

<svg xmlns="http://www.w3.org/2000/svg" height="24" viewBox="0 -960 960 960" width="24"><path d="M479.95-290q20.82 0 35.43-14.57Q530-319.14 530-339.95q0-20.82-14.57-35.43Q500.86-390 480.05-390q-20.82 0-35.43 14.57Q430-360.86 430-340.05q0 20.82 14.57 35.43Q459.14-290 479.95-290ZM360-100q-70.59 0-113.68-39.04t-66.78-96.56q-23.69-58.48-31.62-123.82Q140-424.77 140-479q0-95.85 14.67-166.62 14.68-70.78 53.49-119.22 38.69-48.06 103.81-71.61Q377.1-860 479.97-860q102.88 0 168.02 23.55 65.15 23.55 103.85 71.61 38.81 48.44 53.49 119.22Q820-574.85 820-479q0 54.23-7.92 119.58-7.93 65.34-31.62 123.82-23.69 57.52-66.78 96.56T600-100H360Z"/></svg>
